teeny/solid/opera.svg

<svg width="15" height="15" viewBox="0 0 15 15" fill="none" xmlns="http://www.w3.org/2000/svg">
<path d="M0 7.5C0 3.35786 3.35786 0 7.5 0C9.75175 0 11.7717 0.992326 13.1465 2.56352C11.7095 2.18977 10.2292 2 8.74128 2H7.5C5.567 2 4 3.567 4 5.5V9.5C4 11.433 5.567 13 7.5 13L8.74128 13C10.2292 13 11.7095 12.8102 13.1465 12.4365C11.7717 14.0077 9.75174 15 7.5 15C3.35786 15 0 11.6421 0 7.5Z" fill="black"/>
<path d="M14.0726 11.1154C14.6637 10.0432 15 8.81088 15 7.5C15 6.18913 14.6637 4.9568 14.0727 3.8846L13.959 3.84673C12.6747 3.41862 11.3441 3.15071 9.99743 3.04788C10.6175 3.67938 11 4.54503 11 5.5V9.5C11 10.455 10.6175 11.3206 9.99742 11.9521C11.3441 11.8493 12.6747 11.5814 13.959 11.1533L14.0726 11.1154Z" fill="black"/>
</svg>

<svg viewBox="0 0 15 15" xmlns="http://www.w3.org/2000/svg"><g><path d="M0 7.5C0 3.35 3.35 0 7.5 0c2.25 0 4.27.99 5.64 2.56 -1.44-.38-2.92-.57-4.41-.57H7.48c-1.94 0-3.5 1.56-3.5 3.5v4c0 1.93 1.56 3.5 3.5 3.5h1.24c1.48 0 2.96-.19 4.4-.57 -1.38 1.57-3.4 2.56-5.65 2.56 -4.15 0-7.5-3.36-7.5-7.5Z"/><path d="M14.07 11.11c.59-1.08.92-2.31.92-3.62 0-1.32-.34-2.55-.93-3.62l-.12-.04c-1.29-.43-2.62-.7-3.97-.8 .62.63 1 1.49 1 2.45v4c0 .95-.39 1.82-1.01 2.45 1.34-.11 2.67-.38 3.96-.8l.11-.04Z"/></g></svg>
